16/devices/drive-harddisk-solidstate.svg

<?xml version="1.0" encoding="UTF-8" standalone="no"?>
<!-- Created with Inkscape (http://www.inkscape.org/) -->

<svg
   xmlns:dc="http://purl.org/dc/elements/1.1/"
   xmlns:cc="http://creativecommons.org/ns#"
   xmlns:rdf="http://www.w3.org/1999/02/22-rdf-syntax-ns#"
   xmlns:svg="http://www.w3.org/2000/svg"
   xmlns="http://www.w3.org/2000/svg"
   xmlns:sodipodi="http://sodipodi.sourceforge.net/DTD/sodipodi-0.dtd"
   xmlns:inkscape="http://www.inkscape.org/namespaces/inkscape"
   width="16"
   height="16"
   id="svg4159"
   version="1.1"
   inkscape:version="0.92.4 5da689c313, 2019-01-14"
   viewBox="0 0 16 16"
   sodipodi:docname="drive-harddisk-solidstate.svg">
  <title
     id="title815">Boston Icons</title>
  <defs
     id="defs4161">
    <inkscape:perspective
       sodipodi:type="inkscape:persp3d"
       inkscape:vp_x="0 : 8 : 1"
       inkscape:vp_y="0 : 1000 : 0"
       inkscape:vp_z="16 : 8 : 1"
       inkscape:persp3d-origin="8 : 5.3333333 : 1"
       id="perspective4709" />
    <clipPath
       clipPathUnits="userSpaceOnUse"
       id="clipPath5603">
      <path
         style="fill:#00ffff;fill-opacity:1;stroke:none;stroke-width:0.26458335px;stroke-linecap:butt;stroke-linejoin:miter;stroke-opacity:1"
         d="m 61.912499,165.76667 -6.879168,6.87917 6.879168,6.87916 6.879167,-6.87916 z"
         id="path5605"
         inkscape:connector-curvature="0" />
    </clipPath>
  </defs>
  <sodipodi:namedview
     id="base"
     pagecolor="#ffffff"
     bordercolor="#00fff6"
     borderopacity="1"
     inkscape:pageopacity="0"
     inkscape:pageshadow="2"
     inkscape:zoom="44.395604"
     inkscape:cx="4.364124"
     inkscape:cy="7.6079257"
     inkscape:current-layer="layer1"
     showgrid="false"
     inkscape:grid-bbox="true"
     inkscape:document-units="px"
     inkscape:window-width="1920"
     inkscape:window-height="1016"
     inkscape:window-x="0"
     inkscape:window-y="27"
     inkscape:window-maximized="1"
     showguides="false"
     inkscape:guide-bbox="true">
    <inkscape:grid
       type="xygrid"
       id="grid4707" />
    <sodipodi:guide
       position="8,9"
       orientation="1,0"
       id="guide3096"
       inkscape:locked="false" />
    <sodipodi:guide
       position="12,8"
       orientation="0,1"
       id="guide3098"
       inkscape:locked="false" />
  </sodipodi:namedview>
  <metadata
     id="metadata4164">
    <rdf:RDF>
      <cc:Work
         rdf:about="">
        <dc:format>image/svg+xml</dc:format>
        <dc:type
           rdf:resource="http://purl.org/dc/dcmitype/StillImage" />
        <dc:title>Boston Icons</dc:title>
        <cc:license
           rdf:resource="dribbble.com/chrisdiaz" />
        <dc:creator>
          <cc:Agent>
            <dc:title>Christian Díaz</dc:title>
          </cc:Agent>
        </dc:creator>
        <dc:description>diazchris.deviantart.com | dribbble.com/chrisdiaz</dc:description>
        <dc:date>2019</dc:date>
        <dc:publisher>
          <cc:Agent>
            <dc:title>Christian Díaz</dc:title>
          </cc:Agent>
        </dc:publisher>
        <dc:identifier>christiandiaz.design [at] gmail [dot] com</dc:identifier>
        <dc:subject>
          <rdf:Bag>
            <rdf:li>GNOME icon Theme</rdf:li>
          </rdf:Bag>
        </dc:subject>
      </cc:Work>
    </rdf:RDF>
  </metadata>
  <g
     id="layer1"
     inkscape:label="Layer 1"
     inkscape:groupmode="layer">
    <g
       id="g919">
      <rect
         rx="1.39687e-05"
         y="1"
         x="3"
         height="13"
         width="10"
         id="rect840"
         style="opacity:1;fill:#96a5af;fill-opacity:1;fill-rule:nonzero;stroke:none;stroke-width:6;stroke-linecap:square;stroke-linejoin:bevel;stroke-miterlimit:4;stroke-dasharray:none;stroke-dashoffset:35;stroke-opacity:1" />
      <path
         id="rect851"
         d="M 3,0 C 2.446,0 2,0.446 2,1 v 14 c 0,0.554 0.446,1 1,1 h 10 c 0.554,0 1,-0.446 1,-1 V 1 C 14,0.446 13.554,0 13,0 Z M 3,1 H 13 V 14 H 3 Z"
         style="opacity:1;fill:#7a8e9e;fill-opacity:1;fill-rule:nonzero;stroke:none;stroke-width:6;stroke-linecap:square;stroke-linejoin:bevel;stroke-miterlimit:4;stroke-dasharray:none;stroke-dashoffset:35;stroke-opacity:1"
         inkscape:connector-curvature="0" />
      <rect
         rx="1.39687e-05"
         y="15"
         x="9"
         height="1"
         width="3"
         id="rect842"
         style="opacity:1;fill:#373b43;fill-opacity:1;fill-rule:nonzero;stroke:none;stroke-width:6;stroke-linecap:square;stroke-linejoin:bevel;stroke-miterlimit:4;stroke-dasharray:none;stroke-dashoffset:35;stroke-opacity:1" />
      <rect
         rx="1.39687e-05"
         y="15"
         x="6"
         height="1"
         width="2"
         id="rect844"
         style="opacity:1;fill:#373b43;fill-opacity:1;fill-rule:nonzero;stroke:none;stroke-width:6;stroke-linecap:square;stroke-linejoin:bevel;stroke-miterlimit:4;stroke-dasharray:none;stroke-dashoffset:35;stroke-opacity:1" />
      <path
         id="rect882"
         d="M 6,2 V 4 H 5 3 V 5 H 5 V 6 H 3 V 7 H 5 V 8 H 3 v 1 h 2 v 1 2 h 1 v -2 h 1 v 2 h 1 v -2 h 1 v 2 h 1 v -2 h 1 2 V 9 H 11 V 8 h 2 V 7 H 11 V 6 h 2 V 5 H 11 V 4 2 H 10 V 4 H 9 V 2 H 8 V 4 H 7 V 2 Z m 0,3 h 4 V 9 H 6 Z M 7,6 V 8 H 9 V 6 Z"
         style="opacity:1;fill:#ffffff;fill-opacity:1;fill-rule:nonzero;stroke:none;stroke-width:6;stroke-linecap:square;stroke-linejoin:bevel;stroke-miterlimit:4;stroke-dasharray:none;stroke-dashoffset:35;stroke-opacity:1"
         inkscape:connector-curvature="0" />
    </g>
  </g>
</svg>

<?xml version="1.0" encoding="UTF-8" standalone="no"?>
<!-- Created with Inkscape (http://www.inkscape.org/) -->

<svg
   xmlns:dc="http://purl.org/dc/elements/1.1/"
   xmlns:cc="http://creativecommons.org/ns#"
   xmlns:rdf="http://www.w3.org/1999/02/22-rdf-syntax-ns#"
   xmlns:svg="http://www.w3.org/2000/svg"
   xmlns="http://www.w3.org/2000/svg"
   xmlns:sodipodi="http://sodipodi.sourceforge.net/DTD/sodipodi-0.dtd"
   xmlns:inkscape="http://www.inkscape.org/namespaces/inkscape"
   width="16"
   height="16"
   id="svg4159"
   version="1.1"
   inkscape:version="0.92.4 5da689c313, 2019-01-14"
   viewBox="0 0 16 16"
   sodipodi:docname="drive-harddisk-solidstate.svg">
  <title
     id="title815">Boston Icons</title>
  <defs
     id="defs4161">
    <inkscape:perspective
       sodipodi:type="inkscape:persp3d"
       inkscape:vp_x="0 : 8 : 1"
       inkscape:vp_y="0 : 1000 : 0"
       inkscape:vp_z="16 : 8 : 1"
       inkscape:persp3d-origin="8 : 5.3333333 : 1"
       id="perspective4709" />
    <clipPath
       clipPathUnits="userSpaceOnUse"
       id="clipPath5603">
      <path
         style="fill:#00ffff;fill-opacity:1;stroke:none;stroke-width:0.26458335px;stroke-linecap:butt;stroke-linejoin:miter;stroke-opacity:1"
         d="m 61.912499,165.76667 -6.879168,6.87917 6.879168,6.87916 6.879167,-6.87916 z"
         id="path5605"
         inkscape:connector-curvature="0" />
    </clipPath>
  </defs>
  <sodipodi:namedview
     id="base"
     pagecolor="#ffffff"
     bordercolor="#00fff6"
     borderopacity="1"
     inkscape:pageopacity="0"
     inkscape:pageshadow="2"
     inkscape:zoom="44.395604"
     inkscape:cx="8.9929607"
     inkscape:cy="7.4052029"
     inkscape:current-layer="layer1"
     showgrid="false"
     inkscape:grid-bbox="true"
     inkscape:document-units="px"
     inkscape:window-width="1920"
     inkscape:window-height="1016"
     inkscape:window-x="0"
     inkscape:window-y="27"
     inkscape:window-maximized="1"
     showguides="false"
     inkscape:guide-bbox="true">
    <inkscape:grid
       type="xygrid"
       id="grid4707" />
    <sodipodi:guide
       position="8,9"
       orientation="1,0"
       id="guide3096"
       inkscape:locked="false" />
    <sodipodi:guide
       position="12,8"
       orientation="0,1"
       id="guide3098"
       inkscape:locked="false" />
  </sodipodi:namedview>
  <metadata
     id="metadata4164">
    <rdf:RDF>
      <cc:Work
         rdf:about="">
        <dc:format>image/svg+xml</dc:format>
        <dc:type
           rdf:resource="http://purl.org/dc/dcmitype/StillImage" />
        <dc:title>Boston Icons</dc:title>
        <cc:license
           rdf:resource="dribbble.com/chrisdiaz" />
        <dc:creator>
          <cc:Agent>
            <dc:title>Christian Díaz</dc:title>
          </cc:Agent>
        </dc:creator>
        <dc:description>diazchris.deviantart.com | dribbble.com/chrisdiaz</dc:description>
        <dc:date>2019</dc:date>
        <dc:publisher>
          <cc:Agent>
            <dc:title>Christian Díaz</dc:title>
          </cc:Agent>
        </dc:publisher>
        <dc:identifier>christiandiaz.design [at] gmail [dot] com</dc:identifier>
        <dc:subject>
          <rdf:Bag>
            <rdf:li>GNOME icon Theme</rdf:li>
          </rdf:Bag>
        </dc:subject>
      </cc:Work>
    </rdf:RDF>
  </metadata>
  <g
     id="layer1"
     inkscape:label="Layer 1"
     inkscape:groupmode="layer">
    <g
       id="g919">
      <rect
         rx="1.39687e-05"
         y="1"
         x="3"
         height="13"
         width="10"
         id="rect840"
         style="opacity:1;fill:#a8b4bd;fill-opacity:1;fill-rule:nonzero;stroke:none;stroke-width:6;stroke-linecap:square;stroke-linejoin:bevel;stroke-miterlimit:4;stroke-dasharray:none;stroke-dashoffset:35;stroke-opacity:1" />
      <path
         id="rect851"
         d="M 3,0 C 2.446,0 2,0.446 2,1 v 14 c 0,0.554 0.446,1 1,1 h 10 c 0.554,0 1,-0.446 1,-1 V 1 C 14,0.446 13.554,0 13,0 Z M 3,1 H 13 V 14 H 3 Z"
         style="opacity:1;fill:#8698a6;fill-opacity:1;fill-rule:nonzero;stroke:none;stroke-width:6;stroke-linecap:square;stroke-linejoin:bevel;stroke-miterlimit:4;stroke-dasharray:none;stroke-dashoffset:35;stroke-opacity:1"
         inkscape:connector-curvature="0" />
      <rect
         rx="1.39687e-05"
         y="15"
         x="9"
         height="1"
         width="3"
         id="rect842"
         style="opacity:1;fill:#464d56;fill-opacity:1;fill-rule:nonzero;stroke:none;stroke-width:6;stroke-linecap:square;stroke-linejoin:bevel;stroke-miterlimit:4;stroke-dasharray:none;stroke-dashoffset:35;stroke-opacity:1" />
      <rect
         rx="1.39687e-05"
         y="15"
         x="6"
         height="1"
         width="2"
         id="rect844"
         style="opacity:1;fill:#464d56;fill-opacity:1;fill-rule:nonzero;stroke:none;stroke-width:6;stroke-linecap:square;stroke-linejoin:bevel;stroke-miterlimit:4;stroke-dasharray:none;stroke-dashoffset:35;stroke-opacity:1" />
      <path
         id="rect882"
         d="M 6 2 L 6 4 L 5 4 L 3 4 L 3 5 L 5 5 L 5 6 L 3 6 L 3 7 L 5 7 L 5 8 L 3 8 L 3 9 L 5 9 L 5 10 L 5 12 L 6 12 L 6 10 L 7 10 L 7 12 L 8 12 L 8 10 L 9 10 L 9 12 L 10 12 L 10 10 L 11 10 L 13 10 L 13 9 L 11 9 L 11 8 L 13 8 L 13 7 L 11 7 L 11 6 L 13 6 L 13 5 L 11 5 L 11 4 L 11 2 L 10 2 L 10 4 L 9 4 L 9 2 L 8 2 L 8 4 L 7 4 L 7 2 L 6 2 z M 6 5 L 10 5 L 10 9 L 6 9 L 6 5 z M 7 6 L 7 8 L 9 8 L 9 6 L 7 6 z "
         style="opacity:1;fill:#ffffff;fill-opacity:1;fill-rule:nonzero;stroke:none;stroke-width:6;stroke-linecap:square;stroke-linejoin:bevel;stroke-miterlimit:4;stroke-dasharray:none;stroke-dashoffset:35;stroke-opacity:1" />
    </g>
  </g>
</svg>
